X:1
T:The Broken Token
M:3/2
L:1/8
K:Bb
 F2 F2 BB| B6 F2 G2 F2| D2 F4 FF B2c-B| B4 B2 FF F2G-F| F6 F2 B2 f2|\
 f4 d2 f2 f2 dd| c2 B4 DD FF BB| d6 dc B2G-B| B6||
